src/chart-bar.svg

<svg xmlns="http://www.w3.org/2000/svg" viewBox="0 0 20 20"><path d="M1 10h3v10H1V10zM6 0h3v20H6V0zm5 8h3v12h-3V8zm5-4h3v16h-3V4z"/></svg>

<?xml version="1.0" encoding="UTF-8" standalone="no"?>
<svg width="20px" height="20px" viewBox="0 0 20 20" version="1.1" xmlns="http://www.w3.org/2000/svg" xmlns:xlink="http://www.w3.org/1999/xlink">
    <!-- Generator: Sketch 3.7.2 (28276) - http://www.bohemiancoding.com/sketch -->
    <title>chart-bar</title>
    <desc>Created with Sketch.</desc>
    <defs></defs>
    <g id="Page-1" stroke="none" stroke-width="1" fill="none" fill-rule="evenodd">
        <g id="chart-bar" fill="#000000">
            <path d="M1,10 L4,10 L4,20 L1,20 L1,10 Z M6,0 L9,0 L9,20 L6,20 L6,0 Z M11,8 L14,8 L14,20 L11,20 L11,8 Z M16,4 L19,4 L19,20 L16,20 L16,4 Z" id="Combined-Shape"></path>
        </g>
    </g>
</svg>
